X:404
T:Bantry Lasses
N:"Moderate"
N:"collected by F.O'Neill"
N:Irish title: cailini.de ua .beantrai.ge
B:O'Neill's 404
Z:Transcribed by henrik.norbeck@mailbox.swipnet.se
M:3/4
L:1/8
K:G
D2|.G2 .B2 .d2|.G2 .B2 .d2|dc2 A2 d2|B4 BA|
.G2 .B2 .d2|.G2 .B2 .d2|Tc2 A2 F2|G4 D2|
G2 B2 d2|G2 B2 d2|Tc2 A2 d2|B4 BA|
.G2 .B2 .d2|.g2 .d2 .B2|Tc2 A2 F2|G4||
de|f2 d2 B2|dc2 B2 c2|d2 e2 f2|ag4 de|
f2 d2 B2|Tc2 B2 c2|d2 B2 G2|F4 de|
f2 d2 B2|Tc2 B2 .c2|d2 g2 a2|g4 ag|
Tf2 d2 .c2|B2 G2 B2|TA2 G2 .F2|G4||
